src/icons/classification-generic.icon.svg

<svg width="24px" height="24px" viewBox="0 0 24 24" version="1.1" xmlns="http://www.w3.org/2000/svg" xmlns:xlink="http://www.w3.org/1999/xlink">
    <path d="M12,22 C17.5228475,22 22,17.5228475 22,12 C22,6.4771525 17.5228475,2 12,2 C6.4771525,2 2,6.4771525 2,12 C2,17.5228475 6.4771525,22 12,22 Z" id="bg_icon" fill="#F9AD3D"></path>
    <path d="M11.5053454,11.7428043 L14.7845395,11.7428043 L14.7845395,16.0283717 C14.2530812,16.2017553 13.7527264,16.3233104 13.2834601,16.3930407 C12.8141938,16.462771 12.3345693,16.4976357 11.8445724,16.4976357 C10.5969647,16.4976357 9.64431181,16.1310858 8.98658512,15.3979749 C8.32885842,14.6648641 8,13.6123287 8,12.2403372 C8,10.9060377 8.38162653,9.86575209 9.14489104,9.11944901 C9.90815554,8.37314594 10.9663447,8 12.3194901,8 C13.1675618,8 13.9854676,8.16961179 14.7732319,8.50884046 L14.1908923,9.91097862 C13.5878191,9.60944202 12.9602555,9.45867599 12.3081826,9.45867599 C11.5505719,9.45867599 10.9437386,9.71309367 10.4876645,10.2219367 C10.0315904,10.7307797 9.80355674,11.4148806 9.80355674,12.2742599 C9.80355674,13.1713312 9.98730285,13.8563744 10.3548006,14.32941 C10.7222983,14.8024455 11.2565754,15.0389597 11.957648,15.0389597 C12.3232611,15.0389597 12.6945225,15.0012682 13.0714433,14.925884 L13.0714433,13.2014803 L11.5053454,13.2014803 L11.5053454,11.7428043 Z" id="G" fill="#000000"></path>
</svg>

<svg xmlns="http://www.w3.org/2000/svg" viewBox="0 0 24 24"><path d="M12 22c5.523 0 10-4.477 10-10S17.523 2 12 2 2 6.477 2 12s4.477 10 10 10z" fill="#F9AD3D"/><path d="M11.505 11.743h3.28v4.285a9.245 9.245 0 01-1.502.365c-.469.07-.948.105-1.438.105-1.248 0-2.2-.367-2.858-1.1C8.329 14.665 8 13.612 8 12.24c0-1.334.382-2.374 1.145-3.12C9.908 8.372 10.966 8 12.319 8c.849 0 1.666.17 2.454.509l-.582 1.402a4.16 4.16 0 00-1.883-.452c-.757 0-1.364.254-1.82.763-.456.509-.684 1.193-.684 2.052 0 .897.183 1.582.55 2.055.368.473.903.71 1.604.71a5.67 5.67 0 001.113-.113V13.2h-1.566v-1.458z"/></svg>
